icons/switch-add.svg

<svg xmlns="http://www.w3.org/2000/svg" viewBox="0 0 24 24" fill="currentColor">
  <path d="M8 7.75c-2.38579 0-4.25 1.86421-4.25 4.25 0 2.2956 1.87393 4.25 4.25 4.25h8c2.3858 0 4.25-1.8642 4.25-4.25 0-2.38579-1.8642-4.25-4.25-4.25H8ZM2.25 12c0-3.21421 2.53579-5.75 5.75-5.75h8c3.2142 0 5.75 2.53579 5.75 5.75 0 3.2142-2.5358 5.75-5.75 5.75H8c-3.22393 0-5.75-2.6456-5.75-5.75Zm10 0c0-.4142.3358-.75.75-.75h1.25V10c0-.41421.3358-.75.75-.75s.75.33579.75.75v1.25H17c.4142 0 .75.3358.75.75s-.3358.75-.75.75h-1.25V14c0 .4142-.3358.75-.75.75s-.75-.3358-.75-.75v-1.25H13c-.4142 0-.75-.3358-.75-.75Z"/>
</svg>

<svg width="24" height="24" viewBox="0 0 24 24" fill="none" xmlns="http://www.w3.org/2000/svg">
<path fill-rule="evenodd" clip-rule="evenodd" d="M8 7.75C5.61421 7.75 3.75 9.61421 3.75 12C3.75 14.2956 5.62393 16.25 8 16.25H16C18.3858 16.25 20.25 14.3858 20.25 12C20.25 9.61421 18.3858 7.75 16 7.75H8ZM2.25 12C2.25 8.78579 4.78579 6.25 8 6.25H16C19.2142 6.25 21.75 8.78579 21.75 12C21.75 15.2142 19.2142 17.75 16 17.75H8C4.77607 17.75 2.25 15.1044 2.25 12ZM12.25 12C12.25 11.5858 12.5858 11.25 13 11.25H14.25V10C14.25 9.58579 14.5858 9.25 15 9.25C15.4142 9.25 15.75 9.58579 15.75 10V11.25H17C17.4142 11.25 17.75 11.5858 17.75 12C17.75 12.4142 17.4142 12.75 17 12.75H15.75V14C15.75 14.4142 15.4142 14.75 15 14.75C14.5858 14.75 14.25 14.4142 14.25 14V12.75H13C12.5858 12.75 12.25 12.4142 12.25 12Z" fill="black"/>
</svg>
